src/assets/icons/filters/categories/bike_stroke.svg

<svg width="48" height="46" viewBox="0 0 48 46" fill="none" xmlns="http://www.w3.org/2000/svg">
<path fill-rule="evenodd" clip-rule="evenodd" d="M34.5 42.0001C28.71 42.0001 24 37.2871 24 31.4971C24 26.9896 26.8605 23.1466 30.858 21.6601L33.033 31.8136C33.1288 32.19 33.3667 32.5147 33.6968 32.7194C34.027 32.9241 34.4236 32.993 34.8034 32.9114C35.1832 32.8299 35.5166 32.6043 35.7336 32.2821C35.9505 31.9599 36.0342 31.5662 35.967 31.1836L33.792 21.0286C34.0275 21.0166 34.2615 20.9956 34.5 20.9956C40.29 20.9956 45 25.7086 45 31.4971C45 37.2871 40.29 42.0001 34.5 42.0001V42.0001ZM15 36.0001C14.998 37.5908 14.3652 39.1157 13.2404 40.2405C12.1157 41.3653 10.5907 41.9981 9 42.0001C5.691 42.0001 3 39.3091 3 36.0001C3.00079 34.4086 3.63305 32.8825 4.75796 31.7567C5.88288 30.631 7.40853 29.9976 9 29.9956C12.309 29.9956 15 32.6881 15 35.9971V36.0001ZM34.5 17.9956C41.943 17.9956 48 24.0526 48 31.4986C48 38.9461 41.943 45.0031 34.5 45.0031C27.057 45.0031 21 38.9446 21 31.4956C21 26.2711 23.9895 21.7366 28.344 19.4941H20.25C15.3705 19.4941 11.328 22.8241 10.6215 27.1501C14.8125 27.9151 18 31.5871 18 35.9971C17.998 38.3837 17.0493 40.672 15.362 42.3599C13.6746 44.0478 11.3866 44.9973 9 45.0001C4.0365 45.0001 0 40.9621 0 35.9971C0 31.5136 3.297 27.7966 7.5915 27.1171C8.106 22.8946 10.959 19.3396 14.8965 17.6161C13.0515 16.3696 11.6235 14.5801 10.944 12.4471C10.8598 12.1602 10.866 11.8543 10.962 11.5711C7.9125 11.1226 6.8145 10.4266 6.4395 10.0516C6.1643 9.77926 6.00505 9.41109 5.99506 9.02407C5.98507 8.63705 6.1251 8.26115 6.38587 7.97499C6.64665 7.68884 7.00796 7.5146 7.39425 7.4887C7.78054 7.46281 8.16187 7.58728 8.4585 7.83608C8.661 7.96058 10.563 8.99108 18 8.99108C18.3978 8.99108 18.7794 9.14911 19.0607 9.43042C19.342 9.71172 19.5 10.0933 19.5 10.4911C19.5 10.8889 19.342 11.2704 19.0607 11.5517C18.7794 11.833 18.3978 11.9911 18 11.9911C16.4505 11.9911 15.1125 11.9461 13.9425 11.8726C14.9895 14.6071 17.8245 16.4956 21 16.4956H29.751L28.533 10.8106C28.521 10.7551 28.536 10.7026 28.5315 10.6486C28.5255 10.5946 28.5 10.5481 28.5 10.4941C28.5 10.4461 28.524 10.4041 28.5285 10.3576C28.537 10.2561 28.5572 10.156 28.5885 10.0591C28.6145 9.96943 28.6492 9.88252 28.692 9.79958C28.7368 9.71665 28.7895 9.63828 28.8495 9.56558C29.0314 9.33654 29.279 9.16855 29.559 9.08408C29.604 9.06908 29.6385 9.03758 29.6865 9.02708C29.739 9.01658 29.79 9.03008 29.844 9.02558C29.898 9.02108 29.9445 8.99408 30 8.99408H33C33.3862 8.9768 33.7509 8.81122 34.0181 8.5318C34.2853 8.25239 34.4344 7.88068 34.4344 7.49408C34.4344 7.10747 34.2853 6.73576 34.0181 6.45635C33.7509 6.17694 33.3862 6.01135 33 5.99408H27C26.602 5.99408 26.2203 5.83596 25.9388 5.55452C25.6574 5.27307 25.4993 4.89135 25.4993 4.49333C25.4993 4.0953 25.6574 3.71358 25.9388 3.43214C26.2203 3.15069 26.602 2.99258 27 2.99258H33C35.481 2.99258 37.5 5.01158 37.5 7.49258C37.4988 8.68582 37.0244 9.82988 36.1808 10.6738C35.3371 11.5177 34.1932 11.9925 33 11.9941H31.8555L33.156 18.0646C33.5985 18.0211 34.047 17.9956 34.5 17.9956V17.9956ZM7.62 35.4271C7.50433 35.7001 7.47252 36.0014 7.52861 36.2925C7.58471 36.5837 7.72617 36.8516 7.935 37.0621C8.22 37.3471 8.595 37.4971 9 37.4971C9.19754 37.4991 9.3935 37.4617 9.57639 37.387C9.75928 37.3123 9.92544 37.2019 10.0651 37.0622C10.2048 36.9225 10.3152 36.7564 10.3899 36.5735C10.4646 36.3906 10.502 36.1946 10.5 35.9971C10.5 35.8021 10.47 35.6071 10.38 35.4271C10.305 35.2471 10.2 35.0836 10.065 34.9321C9.915 34.7971 9.765 34.6921 9.57 34.6171C9.29683 34.5022 8.99576 34.4708 8.70478 34.5269C8.4138 34.5829 8.14594 34.7239 7.935 34.9321C7.8 35.0836 7.695 35.2471 7.62 35.4271V35.4271ZM36.435 2.55458C36.3 2.40458 36.195 2.23958 36.12 2.05958C36.0428 1.87934 36.0021 1.68563 36 1.48958C36 1.09958 36.165 0.709577 36.435 0.424577C36.7226 0.151959 37.1037 0 37.5 0C37.8963 0 38.2774 0.151959 38.565 0.424577C38.835 0.709577 39 1.09958 39 1.48958C39 1.68458 38.955 1.87958 38.88 2.05958C38.805 2.23958 38.7 2.40458 38.565 2.55458C38.4253 2.69427 38.2592 2.8047 38.0763 2.8794C37.8935 2.95409 37.6975 2.99155 37.5 2.98958C37.3032 2.9955 37.1077 2.95436 36.93 2.86958C36.7454 2.79917 36.577 2.692 36.435 2.55458V2.55458Z" fill="black"/>
</svg>

<svg width="48" height="46" viewBox="0 0 48 46" fill="none" xmlns="http://www.w3.org/2000/svg"><path fill-rule="evenodd" clip-rule="evenodd" d="M34.5 42C28.71 42 24 37.287 24 31.497c0-4.507 2.86-8.35 6.858-9.837l2.175 10.154a1.502 1.502 0 002.934-.63l-2.175-10.155c.236-.012.47-.033.708-.033 5.79 0 10.5 4.713 10.5 10.501C45 37.287 40.29 42 34.5 42zM15 36a6.007 6.007 0 01-6 6c-3.309 0-6-2.69-6-6a6.008 6.008 0 016-6.004c3.309 0 6 2.692 6 6.001V36zm19.5-18.004c7.443 0 13.5 6.057 13.5 13.503 0 7.447-6.057 13.504-13.5 13.504S21 38.945 21 31.496c0-5.225 2.99-9.76 7.344-12.002H20.25c-4.88 0-8.922 3.33-9.629 7.656 4.191.765 7.379 4.437 7.379 8.847A9.01 9.01 0 019 45c-4.963 0-9-4.038-9-9.003 0-4.483 3.297-8.2 7.591-8.88.515-4.222 3.368-7.777 7.305-9.5-1.845-1.247-3.273-3.037-3.952-5.17a1.454 1.454 0 01.018-.876c-3.05-.448-4.147-1.144-4.522-1.52a1.5 1.5 0 012.019-2.215c.202.125 2.104 1.155 9.541 1.155a1.5 1.5 0 010 3c-1.55 0-2.887-.045-4.057-.118 1.046 2.734 3.882 4.623 7.057 4.623h8.751l-1.218-5.685c-.012-.056.003-.108-.002-.162-.005-.054-.031-.1-.031-.155 0-.048.024-.09.029-.136.008-.102.028-.202.06-.299.026-.09.06-.176.103-.26a1.45 1.45 0 01.157-.233c.182-.23.43-.397.71-.482.045-.015.08-.046.127-.057.053-.01.104.003.158-.001.054-.005.1-.032.156-.032h3a1.502 1.502 0 000-3h-6a1.5 1.5 0 010-3.001h6c2.481 0 4.5 2.019 4.5 4.5a4.506 4.506 0 01-4.5 4.501h-1.145l1.301 6.07c.443-.043.891-.068 1.344-.068zM7.62 35.427a1.494 1.494 0 00.315 1.635c.285.285.66.435 1.065.435a1.485 1.485 0 001.5-1.5c0-.195-.03-.39-.12-.57a1.753 1.753 0 00-.315-.495c-.15-.135-.3-.24-.495-.315a1.5 1.5 0 00-1.635.315c-.135.152-.24.315-.315.495zM36.435 2.555a1.732 1.732 0 01-.315-.495 1.488 1.488 0 01-.12-.57c0-.39.165-.78.435-1.065a1.548 1.548 0 012.13 0C38.835.71 39 1.1 39 1.49c0 .195-.045.39-.12.57-.075.18-.18.345-.315.495a1.485 1.485 0 01-1.065.435 1.238 1.238 0 01-.57-.12 1.46 1.46 0 01-.495-.315z" fill="#000"/></svg>
